app/dist/common/images/dexco-on-nm.svg

<svg fill="none" height="18" width="18" xmlns="http://www.w3.org/2000/svg"><path d="m0 0h18v18h-18z" fill="#f0f3fa"/><path d="m6.5 14h-2.5l7.5-10h2.5l-3.734 5 3.734 5h-2.5l-2.5-3.5zm.662-6-3.032-4h2.37l1.98 2.574-1.317 1.426z" fill="#000"/></svg>

<!-- by TradingView --><svg width="18" height="18" fill="none" xmlns="http://www.w3.org/2000/svg"><path fill="#F0F3FA" d="M0 0h18v18H0z"/><path d="M6.5 14H4l7.5-10H14l-3.734 5L14 14h-2.5L9 10.5 6.5 14ZM7.162 8 4.13 4H6.5l1.98 2.574L7.163 8Z" fill="#000"/></svg>
